!!!OTL: MEERSTERN ICH DICH GRUESSE
!!!ARE: Europa, Mitteleuropa, Deutschland, Franken
!!!SCT: E2048
!!!YEM: Copyright 1995, estate of Helmut Schaffrath.
**kern
*ICvox
*Ivox
*M4/4
*k[f#c#g#]
*A:
=1
{4.a
8g#
4a
4b
=2
4cc#
4cc#
4r}
{4ee
=3
4cc#
8ee
8ff#
8ee
8dd
8b
8ee
=4
2cc#
2r}
=5
{4.a
8g#
4a
4b
=6
4cc#
4cc#
4r}
{4ee
=7
4cc#
8ee
8ff#
8ee
8dd
8b
8ee
=8
2cc#
4r}
{8a
8b
=9
4cc#
4cc#
8dd
8cc#
8dd
8ff#
=10
4ee
4ee
4r}
{4dd
=11
8cc#
8ee
8cc#
8a
4b
4b
=12
2a
2r}
==
!!!AGN: geistlich, Marien - Lied
!!!ONB: ESAC (Essen Associative Code) Database: ERK3
!!!AMT: simple quadruple
!!!AIN: vox
!!!EED: Helmut Schaffrath
!!!EEV: 1.0
*-
